client/src/assets/images/global/sparkle.svg

<svg width="24px" height="24px" viewBox="0 0 24 24" version="1.1" xmlns="http://www.w3.org/2000/svg" xmlns:xlink="http://www.w3.org/1999/xlink">
    <g stroke="none" stroke-width="1" fill="none" fill-rule="evenodd" stroke-linecap="round" stroke-linejoin="round">
        <g transform="translate(-488.000000, -731.000000)" stroke="#000000" stroke-width="2">
            <g id="291" transform="translate(488.000000, 731.000000)">
                <path d="M10,9 C8.5,7.5 8,3 8,3 C8,3 7.5,7.5 6,9 C4.5,10.5 2,11 2,11 C2,11 4.5,11.5 6,13 C7.5,14.5 8,19 8,19 C8,19 8.5,14.5 10,13 C11.5,11.5 14,11 14,11 C14,11 11.5,10.5 10,9 Z" id="Combined-Shape"></path>
                <path d="M19.6666667,4.75 C18.7916667,3.8125 18.5,1 18.5,1 C18.5,1 18.2083333,3.8125 17.3333333,4.75 C16.4583333,5.6875 15,6 15,6 C15,6 16.4583333,6.3125 17.3333333,7.25 C18.2083333,8.1875 18.5,11 18.5,11 C18.5,11 18.7916667,8.1875 19.6666667,7.25 C20.5416667,6.3125 22,6 22,6 C22,6 20.5416667,5.6875 19.6666667,4.75 Z" id="Combined-Shape"></path>
                <path d="M17,17 C16.25,16.25 16,14 16,14 C16,14 15.75,16.25 15,17 C14.25,17.75 13,18 13,18 C13,18 14.25,18.25 15,19 C15.75,19.75 16,22 16,22 C16,22 16.25,19.75 17,19 C17.75,18.25 19,18 19,18 C19,18 17.75,17.75 17,17 Z" id="Combined-Shape"></path>
            </g>
        </g>
    </g>
</svg>

<svg xmlns="http://www.w3.org/2000/svg" viewBox="0 0 24 24">
  <defs/>
  <g fill="none" fill-rule="evenodd" stroke="#000" stroke-linecap="round" stroke-linejoin="round" stroke-width="2">
    <path d="M10 9C8.5 7.5 8 3 8 3s-.5 4.5-2 6-4 2-4 2 2.5.5 4 2 2 6 2 6 .5-4.5 2-6 4-2 4-2-2.5-.5-4-2zM19.7 4.8c-1-1-1.2-3.8-1.2-3.8s-.3 2.8-1.2 3.8C16.5 5.7 15 6 15 6s1.5.3 2.3 1.3c1 .9 1.2 3.7 1.2 3.7s.3-2.8 1.2-3.8C20.5 6.3 22 6 22 6s-1.5-.3-2.3-1.3zM17 17c-.8-.8-1-3-1-3s-.3 2.3-1 3c-.8.8-2 1-2 1s1.3.3 2 1c.8.8 1 3 1 3s.3-2.3 1-3c.8-.8 2-1 2-1s-1.3-.3-2-1z"/>
  </g>
</svg>
